assets/Film frames/Flat/film_frames_flat.svg

<svg width="32" height="32" viewBox="0 0 32 32" fill="none" xmlns="http://www.w3.org/2000/svg">
<path d="M30 8.91016H2V22.9802H30V8.91016Z" fill="#83CBFF"/>
<path d="M30 10.02V5.82C30 5.37 29.63 5 29.18 5H2.82C2.37 5 2 5.37 2 5.82V10.02H5.74C6.8 10.02 7.66 10.88 7.66 11.94V20C7.66 21.06 6.8 21.92 5.74 21.92H2V26.12C2 26.57 2.37 26.94 2.82 26.94H29.18C29.63 26.94 30 26.57 30 26.12V21.92H26.26C25.2 21.92 24.34 21.06 24.34 20V11.94C24.34 10.88 25.2 10.02 26.26 10.02H30ZM20.11 21.92H11.89C10.83 21.92 9.97 21.06 9.97 20V11.94C9.97 10.88 10.83 10.02 11.89 10.02H20.11C21.17 10.02 22.03 10.88 22.03 11.94V20C22.03 21.06 21.17 21.92 20.11 21.92ZM5.77001 23.39C5.95001 23.39 6.09001 23.53 6.09001 23.71V25.09C6.09001 25.27 5.95001 25.41 5.77001 25.41H4.39001C4.21001 25.41 4.07001 25.27 4.07001 25.09V23.71C4.07001 23.53 4.21001 23.39 4.39001 23.39H5.77001ZM11.23 23.39C11.41 23.39 11.55 23.53 11.55 23.71V25.09C11.55 25.27 11.41 25.41 11.23 25.41H9.85003C9.67003 25.41 9.53003 25.27 9.53003 25.09V23.71C9.53003 23.53 9.67003 23.39 9.85003 23.39H11.23ZM15.31 23.39H16.69C16.87 23.39 17.01 23.53 17.01 23.71V25.09C17.01 25.27 16.87 25.41 16.69 25.41H15.31C15.13 25.41 14.99 25.27 14.99 25.09V23.71C14.99 23.53 15.13 23.39 15.31 23.39ZM22.15 23.39C22.32 23.39 22.47 23.53 22.47 23.71V25.09C22.47 25.27 22.33 25.41 22.15 25.41H20.77C20.59 25.41 20.45 25.27 20.45 25.09V23.71C20.45 23.53 20.59 23.39 20.77 23.39H22.15ZM26.23 23.39H27.61C27.78 23.39 27.93 23.53 27.93 23.71V25.09C27.93 25.27 27.79 25.41 27.61 25.41H26.23C26.05 25.41 25.91 25.27 25.91 25.09V23.71C25.91 23.53 26.05 23.39 26.23 23.39ZM4.39001 6.47998H5.77001C5.95001 6.47998 6.09001 6.62998 6.09001 6.79998V8.17998C6.09001 8.35998 5.95001 8.49998 5.77001 8.49998H4.39001C4.21001 8.49998 4.07001 8.35998 4.07001 8.17998V6.79998C4.07001 6.61998 4.21001 6.47998 4.39001 6.47998ZM9.85003 6.47998H11.23C11.41 6.47998 11.55 6.62998 11.55 6.79998V8.17998C11.55 8.35998 11.41 8.49998 11.23 8.49998H9.85003C9.67003 8.49998 9.53003 8.35998 9.53003 8.17998V6.79998C9.53003 6.61998 9.67003 6.47998 9.85003 6.47998ZM16.69 6.47998C16.87 6.47998 17.01 6.62998 17.01 6.79998V8.17998C17.01 8.35998 16.87 8.49998 16.69 8.49998H15.31C15.13 8.49998 14.99 8.35998 14.99 8.17998V6.79998C14.99 6.61998 15.13 6.47998 15.31 6.47998H16.69ZM20.77 6.47998H22.15C22.32 6.47998 22.47 6.62998 22.47 6.79998V8.17998C22.47 8.35998 22.33 8.49998 22.15 8.49998H20.77C20.59 8.49998 20.45 8.35998 20.45 8.17998V6.79998C20.45 6.61998 20.59 6.47998 20.77 6.47998ZM27.61 6.47998C27.78 6.47998 27.93 6.62998 27.93 6.79998V8.17998C27.93 8.35998 27.79 8.49998 27.61 8.49998H26.23C26.05 8.49998 25.91 8.35998 25.91 8.17998V6.79998C25.91 6.61998 26.05 6.47998 26.23 6.47998H27.61Z" fill="#433B6B"/>
</svg>

<svg xmlns="http://www.w3.org/2000/svg" width="32" height="32" fill="none"><path fill="#83CBFF" d="M30 8.91H2v14.07h28V8.91Z"/><path fill="#433B6B" d="M30 10.02v-4.2c0-.45-.37-.82-.82-.82H2.82c-.45 0-.82.37-.82.82v4.2h3.74c1.06 0 1.92.86 1.92 1.92V20c0 1.06-.86 1.92-1.92 1.92H2v4.2c0 .45.37.82.82.82h26.36c.45 0 .82-.37.82-.82v-4.2h-3.74A1.92 1.92 0 0 1 24.34 20v-8.06c0-1.06.86-1.92 1.92-1.92H30Zm-9.89 11.9h-8.22A1.92 1.92 0 0 1 9.97 20v-8.06c0-1.06.86-1.92 1.92-1.92h8.22c1.06 0 1.92.86 1.92 1.92V20c0 1.06-.86 1.92-1.92 1.92ZM5.77 23.39c.18 0 .32.14.32.32v1.38c0 .18-.14.32-.32.32H4.39c-.18 0-.32-.14-.32-.32v-1.38c0-.18.14-.32.32-.32h1.38Zm5.46 0c.18 0 .32.14.32.32v1.38c0 .18-.14.32-.32.32H9.85c-.18 0-.32-.14-.32-.32v-1.38c0-.18.14-.32.32-.32h1.38Zm4.08 0h1.38c.18 0 .32.14.32.32v1.38c0 .18-.14.32-.32.32h-1.38c-.18 0-.32-.14-.32-.32v-1.38c0-.18.14-.32.32-.32Zm6.84 0c.17 0 .32.14.32.32v1.38c0 .18-.14.32-.32.32h-1.38c-.18 0-.32-.14-.32-.32v-1.38c0-.18.14-.32.32-.32h1.38Zm4.08 0h1.38c.17 0 .32.14.32.32v1.38c0 .18-.14.32-.32.32h-1.38c-.18 0-.32-.14-.32-.32v-1.38c0-.18.14-.32.32-.32ZM4.39 6.48h1.38c.18 0 .32.15.32.32v1.38c0 .18-.14.32-.32.32H4.39c-.18 0-.32-.14-.32-.32V6.8c0-.18.14-.32.32-.32Zm5.46 0h1.38c.18 0 .32.15.32.32v1.38c0 .18-.14.32-.32.32H9.85c-.18 0-.32-.14-.32-.32V6.8c0-.18.14-.32.32-.32Zm6.84 0c.18 0 .32.15.32.32v1.38c0 .18-.14.32-.32.32h-1.38c-.18 0-.32-.14-.32-.32V6.8c0-.18.14-.32.32-.32h1.38Zm4.08 0h1.38c.17 0 .32.15.32.32v1.38c0 .18-.14.32-.32.32h-1.38c-.18 0-.32-.14-.32-.32V6.8c0-.18.14-.32.32-.32Zm6.84 0c.17 0 .32.15.32.32v1.38c0 .18-.14.32-.32.32h-1.38c-.18 0-.32-.14-.32-.32V6.8c0-.18.14-.32.32-.32h1.38Z"/></svg>
